hw8Responsive/images/logos/contentlogo/bluebox/baseline-tune-24px.svg

<svg width="40" height="40" viewBox="0 0 40 40" fill="none" xmlns="http://www.w3.org/2000/svg">
<path d="M5 28.3333V31.6667H15V28.3333H5ZM5 8.33333V11.6667H21.6667V8.33333H5ZM21.6667 35V31.6667H35V28.3333H21.6667V25H18.3333V35H21.6667ZM11.6667 15V18.3333H5V21.6667H11.6667V25H15V15H11.6667ZM35 21.6667V18.3333H18.3333V21.6667H35ZM25 15H28.3333V11.6667H35V8.33333H28.3333V5H25V15Z" fill="white"/>
</svg>

<svg width="40" height="40" fill="none" xmlns="http://www.w3.org/2000/svg"><path d="M5 28.333v3.334h10v-3.334H5zm0-20v3.334h16.667V8.333H5zM21.667 35v-3.333H35v-3.334H21.667V25h-3.334v10h3.334zm-10-20v3.333H5v3.334h6.667V25H15V15h-3.333zM35 21.667v-3.334H18.333v3.334H35zM25 15h3.333v-3.333H35V8.333h-6.667V5H25v10z" fill="#fff"/></svg>
